deskphone.svg

<svg fill="currentColor" viewBox="0 0 24 24"><path d="M5 3h14a2 2 0 0 1 2 2v14a2 2 0 0 1-2 2H5a2 2 0 0 1-2-2V5a2 2 0 0 1 2-2m10 2v14h4V5zM5 5v4h8V5zm0 6v2h2v-2zm3 0v2h2v-2zm3 0v2h2v-2zm-6 3v2h2v-2zm3 0v2h2v-2zm3 0v2h2v-2zm0 3v2h2v-2zm-3 0v2h2v-2zm-3 0v2h2v-2z"/></svg>

<svg  viewBox="0 0 24 24" fill="currentColor"><path  d="M5,3H19A2,2 0 0,1 21,5V19A2,2 0 0,1 19,21H5A2,2 0 0,1 3,19V5A2,2 0 0,1 5,3M15,5V19H19V5H15M5,5V9H13V5H5M5,11V13H7V11H5M8,11V13H10V11H8M11,11V13H13V11H11M5,14V16H7V14H5M8,14V16H10V14H8M11,14V16H13V14H11M11,17V19H13V17H11M8,17V19H10V17H8M5,17V19H7V17H5Z"/></svg>
